sldassets/icons/standard/category.svg

<?xml version="1.0"?><svg xmlns="http://www.w3.org/2000/svg" width="100" height="100" viewBox="0 0 100 100"><path fill="#fff" d="m61.8 29.4l8.9 8.9c2 1.9 2 5.1 0 7l-23.2 23.1v-31.8l7.2-7.3c1.9-1.9 5.2-1.9 7.1 0.1z m-24.3-9.4h-12.5c-2.8 0-5 2.2-5 5v43.8c0 6.2 5 11.2 11.2 11.2s11.2-5 11.2-11.2v-43.8c0.1-2.8-2.2-5-4.9-5z m-6.3 53.8c-2.8 0-5-2.2-5-5s2.2-5 5-5 5 2.2 5 5-2.2 5-5 5z m43.8-16.3h-8.8l-6 6h13.8l-0.1 10.5h-24.1l-6 6h31.2c2.8 0 5-2.2 5-5v-12.5c0-2.7-2.2-5-5-5z"></path></svg>

<?xml version="1.0" encoding="utf-8"?>
<!-- Generator: Adobe Illustrator 23.0.2, SVG Export Plug-In . SVG Version: 6.00 Build 0)  -->
<svg version="1.1" id="Layer_1" xmlns="http://www.w3.org/2000/svg" xmlns:xlink="http://www.w3.org/1999/xlink" x="0px" y="0px"
	 width="100px" height="100px" viewBox="0 0 100 100" enable-background="new 0 0 100 100" xml:space="preserve">
<g>
	<path fill="#FFFFFF" d="M61.8,29.4l8.9,8.9l0,0c2,1.9,2,5.1,0,7l0,0L47.5,68.4V47.3V36.6l7.2-7.3C56.6,27.4,59.9,27.4,61.8,29.4z"
		/>
</g>
<path fill="#FFFFFF" d="M37.5,20H25c-2.8,0-5,2.2-5,5v43.8C20,75,25,80,31.2,80s11.2-5,11.2-11.2V25C42.5,22.2,40.2,20,37.5,20z
	 M31.2,73.8c-2.8,0-5-2.2-5-5s2.2-5,5-5s5,2.2,5,5S34,73.8,31.2,73.8z"/>
<g>
	<path fill="#FFFFFF" d="M75,57.5h-8.8l-6,6H74L73.9,74H49.8l-6,6H75c2.8,0,5-2.2,5-5V62.5C80,59.8,77.8,57.5,75,57.5L75,57.5z"/>
</g>
</svg>
